static/img/kroki/217e5bcf135e9b7b93aef7cc9543cba3.svg

<?xml version="1.0" encoding="us-ascii" standalone="no"?><svg xmlns="http://www.w3.org/2000/svg" xmlns:xlink="http://www.w3.org/1999/xlink" contentStyleType="text/css" height="927px" preserveAspectRatio="none" style="width:407px;height:927px;" version="1.1" viewBox="0 0 407 927" width="407px" zoomAndPan="magnify"><defs/><g><!--class aws_cloudfront_function--><g id="elem_aws_cloudfront_function"><rect codeLine="23" fill="#3D176E" height="126.6797" id="aws_cloudfront_function" rx="2.5" ry="2.5" style="stroke:#000D19;stroke-width:0.5;" width="368" x="7" y="633.85"/><ellipse cx="79.25" cy="653.7445" fill="#ADD1B2" rx="11" ry="11" style="stroke:#181818;stroke-width:1.0;"/><path d="M82.2188,659.3852 Q81.6406,659.682 81,659.8227 Q80.3594,659.9789 79.6563,659.9789 Q77.1563,659.9789 75.8281,658.3383 Q74.5156,656.682 74.5156,653.557 Q74.5156,650.432 75.8281,648.7758 Q77.1563,647.1195 79.6563,647.1195 Q80.3594,647.1195 81,647.2758 Q81.6563,647.432 82.2188,647.7289 L82.2188,650.4477 Q81.5938,649.8695 81,649.6039 Q80.4063,649.3227 79.7813,649.3227 Q78.4375,649.3227 77.75,650.4008 Q77.0625,651.4633 77.0625,653.557 Q77.0625,655.6508 77.75,656.7289 Q78.4375,657.7914 79.7813,657.7914 Q80.4063,657.7914 81,657.5258 Q81.5938,657.2445 82.2188,656.6664 L82.2188,659.3852 Z " fill="#000000"/><text fill="#D9B8FF" font-family="Helvetica" font-size="17" lengthAdjust="spacing" textLength="205" x="104.75" y="659.6298">aws_cloudfront_function</text><line style="stroke:#000D19;stroke-width:0.5;" x1="8" x2="374" y1="673.6391" y2="673.6391"/><text fill="#D9B8FF" font-family="sans-serif" font-size="14" font-weight="bold" lengthAdjust="spacing" textLength="121" x="18" y="695.6342">function_config</text><text fill="#D9B8FF" font-family="sans-serif" font-size="14" lengthAdjust="spacing" textLength="225" x="139" y="695.6342">: aws_cloudfront_function_config</text><text fill="#D9B8FF" font-family="sans-serif" font-size="14" font-weight="bold" lengthAdjust="spacing" textLength="116" x="18" y="721.9311">function_stage</text><text fill="#D9B8FF" font-family="sans-serif" font-size="14" lengthAdjust="spacing" textLength="48" x="134" y="721.9311">: string</text><text fill="#D9B8FF" font-family="sans-serif" font-size="14" font-weight="bold" lengthAdjust="spacing" textLength="121" x="18" y="748.2279">function_status</text><text fill="#D9B8FF" font-family="sans-serif" font-size="14" lengthAdjust="spacing" textLength="48" x="139" y="748.2279">: string</text></g><!--class aws_cloudfront_function_config--><g id="elem_aws_cloudfront_function_config"><rect codeLine="28" fill="#3D176E" height="100.3828" id="aws_cloudfront_function_config" rx="2.5" ry="2.5" style="stroke:#000D19;stroke-width:0.5;" width="306" x="38" y="820.53"/><ellipse cx="53" cy="840.4245" fill="#ADD1B2" rx="11" ry="11" style="stroke:#181818;stroke-width:1.0;"/><path d="M55.9688,846.0652 Q55.3906,846.362 54.75,846.5027 Q54.1094,846.6589 53.4063,846.6589 Q50.9063,846.6589 49.5781,845.0183 Q48.2656,843.362 48.2656,840.237 Q48.2656,837.112 49.5781,835.4558 Q50.9063,833.7995 53.4063,833.7995 Q54.1094,833.7995 54.75,833.9558 Q55.4063,834.112 55.9688,834.4089 L55.9688,837.1277 Q55.3438,836.5495 54.75,836.2839 Q54.1563,836.0027 53.5313,836.0027 Q52.1875,836.0027 51.5,837.0808 Q50.8125,838.1433 50.8125,840.237 Q50.8125,842.3308 51.5,843.4089 Q52.1875,844.4714 53.5313,844.4714 Q54.1563,844.4714 54.75,844.2058 Q55.3438,843.9245 55.9688,843.3464 L55.9688,846.0652 Z " fill="#000000"/><text fill="#D9B8FF" font-family="Helvetica" font-size="17" lengthAdjust="spacing" textLength="264" x="72" y="846.3098">aws_cloudfront_function_config</text><line style="stroke:#000D19;stroke-width:0.5;" x1="39" x2="343" y1="860.3191" y2="860.3191"/><text fill="#D9B8FF" font-family="sans-serif" font-size="14" font-weight="bold" lengthAdjust="spacing" textLength="73" x="49" y="882.3142">comment</text><text fill="#D9B8FF" font-family="sans-serif" font-size="14" lengthAdjust="spacing" textLength="48" x="122" y="882.3142">: string</text><text fill="#D9B8FF" font-family="sans-serif" font-size="14" font-weight="bold" lengthAdjust="spacing" textLength="61" x="49" y="908.6111">runtime</text><text fill="#D9B8FF" font-family="sans-serif" font-size="14" lengthAdjust="spacing" textLength="48" x="110" y="908.6111">: string</text></g><!--class aws_resource--><g id="elem_aws_resource"><rect codeLine="32" fill="#3D176E" height="74.0859" id="aws_resource" rx="2.5" ry="2.5" style="stroke:#000D19;stroke-width:0.5;" width="155" x="7.5" y="438.76"/><ellipse cx="22.5" cy="458.6545" fill="#ADD1B2" rx="11" ry="11" style="stroke:#181818;stroke-width:1.0;"/><path d="M25.4688,464.2952 Q24.8906,464.592 24.25,464.7327 Q23.6094,464.8889 22.9063,464.8889 Q20.4063,464.8889 19.0781,463.2483 Q17.7656,461.592 17.7656,458.467 Q17.7656,455.342 19.0781,453.6858 Q20.4063,452.0295 22.9063,452.0295 Q23.6094,452.0295 24.25,452.1858 Q24.9063,452.342 25.4688,452.6389 L25.4688,455.3577 Q24.8438,454.7795 24.25,454.5139 Q23.6563,454.2327 23.0313,454.2327 Q21.6875,454.2327 21,455.3108 Q20.3125,456.3733 20.3125,458.467 Q20.3125,460.5608 21,461.6389 Q21.6875,462.7014 23.0313,462.7014 Q23.6563,462.7014 24.25,462.4358 Q24.8438,462.1545 25.4688,461.5764 L25.4688,464.2952 Z " fill="#000000"/><text fill="#D9B8FF" font-family="Helvetica" font-size="17" lengthAdjust="spacing" textLength="113" x="41.5" y="464.5398">aws_resource</text><line style="stroke:#000D19;stroke-width:0.5;" x1="8.5" x2="161.5" y1="478.5491" y2="478.5491"/><text fill="#D9B8FF" font-family="sans-serif" font-size="14" font-weight="bold" lengthAdjust="spacing" textLength="26" x="18.5" y="500.5442">arn</text><text fill="#D9B8FF" font-family="sans-serif" font-size="14" lengthAdjust="spacing" textLength="48" x="44.5" y="500.5442">: string</text></g><!--class resource--><g id="elem_resource"><rect codeLine="35" fill="#3D176E" height="310.7578" id="resource" rx="2.5" ry="2.5" style="stroke:#000D19;stroke-width:0.5;" width="227" x="77.5" y="7"/><ellipse cx="146.25" cy="26.8945" fill="#ADD1B2" rx="11" ry="11" style="stroke:#181818;stroke-width:1.0;"/><path d="M149.2188,32.5352 Q148.6406,32.832 148,32.9727 Q147.3594,33.1289 146.6563,33.1289 Q144.1563,33.1289 142.8281,31.4883 Q141.5156,29.832 141.5156,26.707 Q141.5156,23.582 142.8281,21.9258 Q144.1563,20.2695 146.6563,20.2695 Q147.3594,20.2695 148,20.4258 Q148.6563,20.582 149.2188,20.8789 L149.2188,23.5977 Q148.5938,23.0195 148,22.7539 Q147.4063,22.4727 146.7813,22.4727 Q145.4375,22.4727 144.75,23.5508 Q144.0625,24.6133 144.0625,26.707 Q144.0625,28.8008 144.75,29.8789 Q145.4375,30.9414 146.7813,30.9414 Q147.4063,30.9414 148,30.6758 Q148.5938,30.3945 149.2188,29.8164 L149.2188,32.5352 Z " fill="#000000"/><text fill="#D9B8FF" font-family="Helvetica" font-size="17" lengthAdjust="spacing" textLength="71" x="171.75" y="32.7798">resource</text><line style="stroke:#000D19;stroke-width:0.5;" x1="78.5" x2="303.5" y1="46.7891" y2="46.7891"/><text fill="#D9B8FF" font-family="sans-serif" font-size="14" font-weight="bold" lengthAdjust="spacing" textLength="29" x="88.5" y="68.7842">age</text><text fill="#D9B8FF" font-family="sans-serif" font-size="14" lengthAdjust="spacing" textLength="66" x="117.5" y="68.7842">: duration</text><text fill="#D9B8FF" font-family="sans-serif" font-size="14" font-weight="bold" lengthAdjust="spacing" textLength="43" x="88.5" y="95.0811">atime</text><text fill="#D9B8FF" font-family="sans-serif" font-size="14" lengthAdjust="spacing" textLength="70" x="131.5" y="95.0811">: datetime</text><text fill="#D9B8FF" font-family="sans-serif" font-size="14" font-weight="bold" lengthAdjust="spacing" textLength="43" x="88.5" y="121.3779">ctime</text><text fill="#D9B8FF" font-family="sans-serif" font-size="14" lengthAdjust="spacing" textLength="70" x="131.5" y="121.3779">: datetime</text><text fill="#D9B8FF" font-family="sans-serif" font-size="14" font-weight="bold" lengthAdjust="spacing" textLength="14" x="88.5" y="147.6748">id</text><text fill="#D9B8FF" font-family="sans-serif" font-size="14" lengthAdjust="spacing" textLength="48" x="102.5" y="147.6748">: string</text><text fill="#D9B8FF" font-family="sans-serif" font-size="14" font-weight="bold" lengthAdjust="spacing" textLength="33" x="88.5" y="173.9717">kind</text><text fill="#D9B8FF" font-family="sans-serif" font-size="14" lengthAdjust="spacing" textLength="48" x="121.5" y="173.9717">: string</text><text fill="#D9B8FF" font-family="sans-serif" font-size="14" font-weight="bold" lengthAdjust="spacing" textLength="90" x="88.5" y="200.2686">last_access</text><text fill="#D9B8FF" font-family="sans-serif" font-size="14" lengthAdjust="spacing" textLength="66" x="178.5" y="200.2686">: duration</text><text fill="#D9B8FF" font-family="sans-serif" font-size="14" font-weight="bold" lengthAdjust="spacing" textLength="90" x="88.5" y="226.5654">last_update</text><text fill="#D9B8FF" font-family="sans-serif" font-size="14" lengthAdjust="spacing" textLength="66" x="178.5" y="226.5654">: duration</text><text fill="#D9B8FF" font-family="sans-serif" font-size="14" font-weight="bold" lengthAdjust="spacing" textLength="48" x="88.5" y="252.8623">mtime</text><text fill="#D9B8FF" font-family="sans-serif" font-size="14" lengthAdjust="spacing" textLength="70" x="136.5" y="252.8623">: datetime</text><text fill="#D9B8FF" font-family="sans-serif" font-size="14" font-weight="bold" lengthAdjust="spacing" textLength="43" x="88.5" y="279.1592">name</text><text fill="#D9B8FF" font-family="sans-serif" font-size="14" lengthAdjust="spacing" textLength="48" x="131.5" y="279.1592">: string</text><text fill="#D9B8FF" font-family="sans-serif" font-size="14" font-weight="bold" lengthAdjust="spacing" textLength="34" x="88.5" y="305.4561">tags</text><text fill="#D9B8FF" font-family="sans-serif" font-size="14" lengthAdjust="spacing" textLength="171" x="122.5" y="305.4561">: dictionary[string, string]</text></g><!--class serverless_function--><g id="elem_serverless_function"><rect codeLine="47" fill="#3D176E" height="39.7891" id="serverless_function" rx="2.5" ry="2.5" style="stroke:#000D19;stroke-width:0.5;" width="203" x="197.5" y="455.91"/><ellipse cx="212.5" cy="475.8045" fill="#ADD1B2" rx="11" ry="11" style="stroke:#181818;stroke-width:1.0;"/><path d="M215.4688,481.4452 Q214.8906,481.742 214.25,481.8827 Q213.6094,482.0389 212.9063,482.0389 Q210.4063,482.0389 209.0781,480.3983 Q207.7656,478.742 207.7656,475.617 Q207.7656,472.492 209.0781,470.8358 Q210.4063,469.1795 212.9063,469.1795 Q213.6094,469.1795 214.25,469.3358 Q214.9063,469.492 215.4688,469.7889 L215.4688,472.5077 Q214.8438,471.9295 214.25,471.6639 Q213.6563,471.3827 213.0313,471.3827 Q211.6875,471.3827 211,472.4608 Q210.3125,473.5233 210.3125,475.617 Q210.3125,477.7108 211,478.7889 Q211.6875,479.8514 213.0313,479.8514 Q213.6563,479.8514 214.25,479.5858 Q214.8438,479.3045 215.4688,478.7264 L215.4688,481.4452 Z " fill="#000000"/><text fill="#D9B8FF" font-family="Helvetica" font-size="17" lengthAdjust="spacing" textLength="161" x="231.5" y="481.6898">serverless_function</text></g><!--link aws_cloudfront_function to aws_cloudfront_function_config--><g id="link_aws_cloudfront_function_aws_cloudfront_function_config"><path codeLine="50" d="M191,760.6 C191,780.24 191,795.64 191,814.25 " fill="none" id="aws_cloudfront_function-to-aws_cloudfront_function_config" style="stroke:#FFAF37;stroke-width:2.0;"/><polygon fill="#FFAF37" points="191,820.25,195,811.25,191,815.25,187,811.25,191,820.25" style="stroke:#FFAF37;stroke-width:2.0;"/></g><!--reverse link aws_resource to aws_cloudfront_function--><g id="link_aws_resource_aws_cloudfront_function"><path codeLine="51" d="M110.3313,529.2371 C126.1513,561.9771 141.95,594.66 160.81,633.7 " fill="none" id="aws_resource-backto-aws_cloudfront_function" style="stroke:#FFAF37;stroke-width:2.0;"/><polygon fill="none" points="102.5,513.03,104.9289,531.8476,115.7337,526.6267,102.5,513.03" style="stroke:#FFAF37;stroke-width:2.0;"/></g><!--reverse link serverless_function to aws_cloudfront_function--><g id="link_serverless_function_aws_cloudfront_function"><path codeLine="52" d="M281.6525,512.0405 C266.7225,542.3805 244.86,586.78 221.91,633.4 " fill="none" id="serverless_function-backto-aws_cloudfront_function" style="stroke:#FFAF37;stroke-width:2.0;"/><polygon fill="none" points="289.6,495.89,276.269,509.3913,287.036,514.6896,289.6,495.89" style="stroke:#FFAF37;stroke-width:2.0;"/></g><!--reverse link resource to aws_resource--><g id="link_resource_aws_resource"><path codeLine="53" d="M132.509,335.2196 C117.179,380.2496 107.62,408.35 97.35,438.52 " fill="none" id="resource-backto-aws_resource" style="stroke:#FFAF37;stroke-width:2.0;"/><polygon fill="none" points="138.31,318.18,126.8292,333.286,138.1889,337.1533,138.31,318.18" style="stroke:#FFAF37;stroke-width:2.0;"/></g><!--reverse link resource to serverless_function--><g id="link_resource_serverless_function"><path codeLine="54" d="M250.5799,335.1856 C269.5399,389.8356 282.64,427.63 292.36,455.65 " fill="none" id="resource-backto-serverless_function" style="stroke:#FFAF37;stroke-width:2.0;"/><polygon fill="none" points="244.68,318.18,244.9113,337.1523,256.2484,333.219,244.68,318.18" style="stroke:#FFAF37;stroke-width:2.0;"/></g><!--SRC=[XPDRQnin48NVzrS8ycQwO2UqZaCf98RIleJIzAqKCvP6jl1ACYCfnhtyzqgxTj3Ux3Vld4zdpepahHB8KE_zaMdKQoHNk9qoUo3Gx9787fQsiiHkf0HvD- -AdwtnLu5dqCY-OFMANd7e4Z-sYkyCEiTkC-a9-6v3DXZHs7i2uwA4ncVKiWBd7hqdjGuUip1YiRwNiajsJM_kn6p-0NkO9O5qGgRJgPWjkiZLLXVdVYDUr6zaitnfpzPZBsQlHKrTJ9c8B6HlqBC-cl4R2A7CXhtFQj-RJ6IGMlMNBGXxIBI4okLjd4T2wuzxNFQcmiMzaFD1-EiONF2qEWO7j-AL3K9Id64bW-5UMSF-59F9-MF5hP5gCvayZE4d8Z_ZF6mm7N7nJPckv8FBj7-NmvpSwqpSQXrVRikOWl5AuuWXeRE1EDR7WSm0raQQs28GfEQfSdONu37zJZa6QagqOiNRQ1TYBxy2pkC_jDEXLi8-UNKKFT37W6vlDgwwSLJrle2EFnljtOdvzJQgGtf5gcA4_AwZFFOGolBJjLjlRVdZtx8inquKG-qldnWmFfUwse1vyHy0]--></g></svg>

<svg xmlns="http://www.w3.org/2000/svg" width="407" height="927" viewBox="0 0 407 927"><rect width="368" height="126.68" x="7" y="633.85" fill="#3D176E" rx="2.5" ry="2.5" style="stroke:#000d19;stroke-width:.5"/><circle cx="79.25" cy="653.745" r="11" fill="#ADD1B2" style="stroke:#181818;stroke-width:1"/><path d="M82.219 659.385q-.578.297-1.219.438-.64.156-1.344.156-2.5 0-3.828-1.64-1.312-1.657-1.312-4.782t1.312-4.781q1.328-1.656 3.828-1.656.703 0 1.344.156.656.156 1.219.453v2.719q-.625-.578-1.219-.844-.594-.281-1.219-.281-1.344 0-2.031 1.078-.687 1.062-.687 3.156t.687 3.172q.688 1.062 2.031 1.062.625 0 1.219-.265.594-.281 1.219-.86z"/><text x="104.75" y="659.63" fill="#D9B8FF" font-family="Helvetica" font-size="17" textLength="205">aws_cloudfront_function</text><path d="M8 673.639h366" style="stroke:#000d19;stroke-width:.5"/><text x="18" y="695.634" fill="#D9B8FF" font-family="sans-serif" font-size="14" font-weight="bold" textLength="121">function_config</text><text x="139" y="695.634" fill="#D9B8FF" font-family="sans-serif" font-size="14" textLength="225">: aws_cloudfront_function_config</text><text x="18" y="721.931" fill="#D9B8FF" font-family="sans-serif" font-size="14" font-weight="bold" textLength="116">function_stage</text><text x="134" y="721.931" fill="#D9B8FF" font-family="sans-serif" font-size="14" textLength="48">: string</text><text x="18" y="748.228" fill="#D9B8FF" font-family="sans-serif" font-size="14" font-weight="bold" textLength="121">function_status</text><text x="139" y="748.228" fill="#D9B8FF" font-family="sans-serif" font-size="14" textLength="48">: string</text><rect width="306" height="100.383" x="38" y="820.53" fill="#3D176E" rx="2.5" ry="2.5" style="stroke:#000d19;stroke-width:.5"/><circle cx="53" cy="840.424" r="11" fill="#ADD1B2" style="stroke:#181818;stroke-width:1"/><path d="M55.969 846.065q-.578.297-1.219.438-.64.156-1.344.156-2.5 0-3.828-1.64-1.312-1.657-1.312-4.782t1.312-4.781q1.328-1.657 3.828-1.657.703 0 1.344.157.656.156 1.219.453v2.719q-.625-.579-1.219-.844-.594-.281-1.219-.281-1.343 0-2.031 1.078-.687 1.062-.687 3.156t.687 3.172q.688 1.062 2.031 1.062.625 0 1.219-.265.594-.282 1.219-.86z"/><text x="72" y="846.31" fill="#D9B8FF" font-family="Helvetica" font-size="17" textLength="264">aws_cloudfront_function_config</text><path d="M39 860.319h304" style="stroke:#000d19;stroke-width:.5"/><text x="49" y="882.314" fill="#D9B8FF" font-family="sans-serif" font-size="14" font-weight="bold" textLength="73">comment</text><text x="122" y="882.314" fill="#D9B8FF" font-family="sans-serif" font-size="14" textLength="48">: string</text><text x="49" y="908.611" fill="#D9B8FF" font-family="sans-serif" font-size="14" font-weight="bold" textLength="61">runtime</text><text x="110" y="908.611" fill="#D9B8FF" font-family="sans-serif" font-size="14" textLength="48">: string</text><rect width="155" height="74.086" x="7.5" y="438.76" fill="#3D176E" rx="2.5" ry="2.5" style="stroke:#000d19;stroke-width:.5"/><circle cx="22.5" cy="458.654" r="11" fill="#ADD1B2" style="stroke:#181818;stroke-width:1"/><path d="M25.469 464.295q-.578.297-1.219.438-.64.156-1.344.156-2.5 0-3.828-1.64-1.312-1.657-1.312-4.782t1.312-4.781q1.328-1.656 3.828-1.656.703 0 1.344.156.656.156 1.219.453v2.719q-.625-.579-1.219-.844-.594-.281-1.219-.281-1.343 0-2.031 1.078-.687 1.062-.687 3.156t.687 3.172q.688 1.062 2.031 1.062.625 0 1.219-.265.594-.281 1.219-.86z"/><text x="41.5" y="464.54" fill="#D9B8FF" font-family="Helvetica" font-size="17" textLength="113">aws_resource</text><path d="M8.5 478.549h153" style="stroke:#000d19;stroke-width:.5"/><text x="18.5" y="500.544" fill="#D9B8FF" font-family="sans-serif" font-size="14" font-weight="bold" textLength="26">arn</text><text x="44.5" y="500.544" fill="#D9B8FF" font-family="sans-serif" font-size="14" textLength="48">: string</text><rect width="227" height="310.758" x="77.5" y="7" fill="#3D176E" rx="2.5" ry="2.5" style="stroke:#000d19;stroke-width:.5"/><circle cx="146.25" cy="26.895" r="11" fill="#ADD1B2" style="stroke:#181818;stroke-width:1"/><path d="M149.219 32.535q-.578.297-1.219.438-.64.156-1.344.156-2.5 0-3.828-1.64-1.312-1.657-1.312-4.782t1.312-4.781q1.328-1.656 3.828-1.656.703 0 1.344.156.656.156 1.219.453v2.719q-.625-.578-1.219-.844-.594-.281-1.219-.281-1.344 0-2.031 1.078-.687 1.062-.687 3.156t.687 3.172q.688 1.062 2.031 1.062.625 0 1.219-.265.594-.281 1.219-.86z"/><text x="171.75" y="32.78" fill="#D9B8FF" font-family="Helvetica" font-size="17" textLength="71">resource</text><path d="M78.5 46.789h225" style="stroke:#000d19;stroke-width:.5"/><text x="88.5" y="68.784" fill="#D9B8FF" font-family="sans-serif" font-size="14" font-weight="bold" textLength="29">age</text><text x="117.5" y="68.784" fill="#D9B8FF" font-family="sans-serif" font-size="14" textLength="66">: duration</text><text x="88.5" y="95.081" fill="#D9B8FF" font-family="sans-serif" font-size="14" font-weight="bold" textLength="43">atime</text><text x="131.5" y="95.081" fill="#D9B8FF" font-family="sans-serif" font-size="14" textLength="70">: datetime</text><text x="88.5" y="121.378" fill="#D9B8FF" font-family="sans-serif" font-size="14" font-weight="bold" textLength="43">ctime</text><text x="131.5" y="121.378" fill="#D9B8FF" font-family="sans-serif" font-size="14" textLength="70">: datetime</text><text x="88.5" y="147.675" fill="#D9B8FF" font-family="sans-serif" font-size="14" font-weight="bold" textLength="14">id</text><text x="102.5" y="147.675" fill="#D9B8FF" font-family="sans-serif" font-size="14" textLength="48">: string</text><text x="88.5" y="173.972" fill="#D9B8FF" font-family="sans-serif" font-size="14" font-weight="bold" textLength="33">kind</text><text x="121.5" y="173.972" fill="#D9B8FF" font-family="sans-serif" font-size="14" textLength="48">: string</text><text x="88.5" y="200.269" fill="#D9B8FF" font-family="sans-serif" font-size="14" font-weight="bold" textLength="90">last_access</text><text x="178.5" y="200.269" fill="#D9B8FF" font-family="sans-serif" font-size="14" textLength="66">: duration</text><text x="88.5" y="226.565" fill="#D9B8FF" font-family="sans-serif" font-size="14" font-weight="bold" textLength="90">last_update</text><text x="178.5" y="226.565" fill="#D9B8FF" font-family="sans-serif" font-size="14" textLength="66">: duration</text><text x="88.5" y="252.862" fill="#D9B8FF" font-family="sans-serif" font-size="14" font-weight="bold" textLength="48">mtime</text><text x="136.5" y="252.862" fill="#D9B8FF" font-family="sans-serif" font-size="14" textLength="70">: datetime</text><text x="88.5" y="279.159" fill="#D9B8FF" font-family="sans-serif" font-size="14" font-weight="bold" textLength="43">name</text><text x="131.5" y="279.159" fill="#D9B8FF" font-family="sans-serif" font-size="14" textLength="48">: string</text><text x="88.5" y="305.456" fill="#D9B8FF" font-family="sans-serif" font-size="14" font-weight="bold" textLength="34">tags</text><text x="122.5" y="305.456" fill="#D9B8FF" font-family="sans-serif" font-size="14" textLength="171">: dictionary[string, string]</text><rect width="203" height="39.789" x="197.5" y="455.91" fill="#3D176E" rx="2.5" ry="2.5" style="stroke:#000d19;stroke-width:.5"/><circle cx="212.5" cy="475.805" r="11" fill="#ADD1B2" style="stroke:#181818;stroke-width:1"/><path d="M215.469 481.445q-.578.297-1.219.438-.64.156-1.344.156-2.5 0-3.828-1.64-1.312-1.657-1.312-4.782t1.312-4.781q1.328-1.656 3.828-1.656.703 0 1.344.156.656.156 1.219.453v2.719q-.625-.578-1.219-.844-.594-.281-1.219-.281-1.344 0-2.031 1.078-.687 1.062-.687 3.156t.687 3.172q.688 1.062 2.031 1.062.625 0 1.219-.265.594-.281 1.219-.86z"/><text x="231.5" y="481.69" fill="#D9B8FF" font-family="Helvetica" font-size="17" textLength="161">serverless_function</text><path fill="none" d="M191 760.6v53.65" style="stroke:#ffaf37;stroke-width:2"/><path fill="#FFAF37" d="m191 820.25 4-9-4 4-4-4z" style="stroke:#ffaf37;stroke-width:2"/><g fill="none"><path d="M110.331 529.237c15.82 32.74 31.619 65.423 50.479 104.463" style="stroke:#ffaf37;stroke-width:2"/><path d="m102.5 513.03 2.429 18.818 10.805-5.221z" style="stroke:#ffaf37;stroke-width:2"/></g><g fill="none"><path d="M281.653 512.04c-14.93 30.34-36.793 74.74-59.743 121.36" style="stroke:#ffaf37;stroke-width:2"/><path d="m289.6 495.89-13.331 13.501 10.767 5.299z" style="stroke:#ffaf37;stroke-width:2"/></g><path fill="none" d="M132.509 335.22c-15.33 45.03-24.889 73.13-35.159 103.3m40.96-120.34-11.48 15.106 11.359 3.867zm112.27 17.006c18.96 54.65 32.06 92.444 41.78 120.464m-47.68-137.47.231 18.972 11.337-3.933z" style="stroke:#ffaf37;stroke-width:2"/></svg>
